!!!CDT:
!!!PTL: Il sesto libro de madrigali a sei voci
!!!PPP: Venice
!!!PPR: Angelo Gardano
!!!PDT: 1591
!!!PUB-format:
!!!RISM: M 3384
!!!rime: 560
!!!AGN: Madrigal
!!!SCT: Trm0560i
!!!SCA: Trm0560i
!!!original-voices: 6
!!!extant-voices: 3
!!!complete: N
!!!final: G
!!!COM: Monte, Filippo di
!!!OTL: Tarquinia, se rimiri
**kern	**text	**kern	**text	**kern	**text
*part3	*part3	*part2	*part2	*part1	*part1
*staff3	*staff3	*staff2	*staff2	*staff1	*staff1
*I"Tenore	*	*I"Quinto	*	*I"Alto	*
*I'T	*	*I'V	*	*I'A	*
*oclefC4	*	*oclefC3	*	*oclefC3	*
*clefGv2	*	*clefGv2	*	*clefGv2	*
*k[]	*	*k[]	*	*k[]	*
*a:	*	*a:	*	*a:	*
*omet(C)	*	*omet(C)	*	*omet(C)	*
*M4/2	*	*M4/2	*	*M4/2	*
=1	=1	=1	=1	=1	=1
1r	.	0r	.	2d	Men-
.	.	.	.	4e	-tre,
.	.	.	.	4g	mia
2d	Men-	.	.	4g	stel-
.	.	.	.	4f#X	-la,
4G	-tre,	.	.	2g	mi-
4B	mia	.	.	.	.
=2	=2	=2	=2	=2	=2
4A	stel-	1r	.	4a	-ri,
4A	-la,	.	.	4a	<Men-
2d	mi-	.	.	4f#X	-tre,
.	.	.	.	4f#i	mia
2G	-ri,	2r	.	4.g	stel-
.	.	.	.	8fnXi	-la,
2r	.	4r	.	2e	mi-
.	.	4g	I	.	.
=3	=3	=3	=3	=3	=3
0r	.	4f#X	bei	4d	-ri>
.	.	4g	ce-	4g	I
.	.	4a	-le-	8fL	bei
.	.	.	.	8gJ	ce-
.	.	4fnXi	-sti	4.a	-le-
.	.	2c	gi-	.	.
.	.	.	.	8g	-sti
.	.	.	.	2g	gi-
.	.	2d	-ri,	.	.
.	.	.	.	4f#i	.
=4	=4	=4	=4	=4	=4
4r	.	1r	.	4g	-ri,
4G	Men-	.	.	4g	Men-
4A	-tre,	.	.	4c	-tre,
4c	mia	.	.	4e	mia
4c	stel-	4r	.	4.d	stel-
4B	-la,	4d	Men-	.	.
.	.	.	.	8G	-la,
2c	mi-	4e	-tre,	2G	mi-
.	.	4g	mia	.	.
=5	=5	=5	=5	=5	=5
2A	-ri	4g	stel-	2d	-ri,
.	.	4f#X	-la,	.	.
4r	.	2g	mi-	4r	.
4B	I	.	.	4d	<Men-
4c	bei	2e	-ri,	4e	-tre,
4e	ce-	.	.	4g	mia
[2d	-le-	2r	.	4g	stel-
.	.	.	.	4f#X	-la,
=6	=6	=6	=6	=6	=6
4d]	.	2r	.	2g	mi-
4G	-sti	.	.	.	.
1A	gi-	4r	.	2e	-ri>
.	.	4e	Men-	.	.
.	.	4f#X	-tre,	2r	.
.	.	4f#i	mia	.	.
2G	-ri,	4.g	stel-	2d	I
.	.	8fnXi	-la,	.	.
=7	=7	=7	=7	=7	=7
0r	.	2e	mi-	4e	bei
.	.	.	.	4g	ce-
.	.	2d	-ri	4g	-le-
.	.	.	.	4f#X	-sti
.	.	2r	.	4.g	gi-
.	.	.	.	8fnXi	.
.	.	4r	.	2e	.
.	.	4g	I	.	.
=8	=8	=8	=8	=8	=8
0r	.	4f#X	bei	2d	-ri,
.	.	4g	ce-	.	.
.	.	2a	-le-	2r	.
.	.	4g	-sti	1r	.
.	.	2g	gi-	.	.
.	.	4f#i	.	.	.
=9	=9	=9	=9	=9	=9
4r	.	2g	-ri,	4r	.
4B	Il	.	.	4d	Il
4A	ciel	2r	.	4d	ciel
4.B	es-	.	.	4.d	es-
.	.	1r	.	.	.
8c#X	-ser	.	.	8g	-ser
2d	vor-	.	.	4f	vor-
.	.	.	.	2e	-re-
4c#X	-re-	.	.	.	.
=10	=10	=10	=10	=10	=10
2d	-i;	4r	.	2d	-i;
.	.	4d	Il	.	.
2r	.	4c#X	ciel	2r	.
.	.	4.d	es-	.	.
1r	.	.	.	1r	.
.	.	8B	-ser	.	.
.	.	4A	vor-	.	.
.	.	2e	-re-	.	.
=11	=11	=11	=11	=11	=11
0r	.	4A	-i;	0r	.
.	.	4d	Per-	.	.
.	.	4c#X	-ché	.	.
.	.	4d	ne	.	.
.	.	4B	gl'oc-	.	.
.	.	4A	-chi	.	.
.	.	2e	mie-	.	.
=12	=12	=12	=12	=12	=12
2r	.	2A	-i	2r	.
1F#X	Fi-	1d	Fi-	1A	Fi-
2G	-so	2d	-so	2B-X	-so
=13	=13	=13	=13	=13	=13
4F#X	tu	4d	tu	4A	tu
2G	ri-	2e	ri-	2c	ri-
4FnXi	-vol-	4d	-vol-	4A	-vol-
2E	-ges-	2c#X	-ges-	2A	-ges-
4E	-si	4c#i	-si	4A	-si
4F#X	Le	4d	Le	4A	Le
=14	=14	=14	=14	=14	=14
2G	tue	2e	tue	2c	tue
2.A	dol-	2.f	dol-	2.c	dol-
4A	-ci	4f	-ci	4c	-ci
2A	fa-	2f	fa-	2d	fa-
=15	=15	=15	=15	=15	=15
1G#X	-vil-	1e	-vil-	1B	-vil-
4G#i	-le,	2e	-le,	4B	-le,
4A	Il	.	.	4c#X	Il
4A	ciel	2r	.	4d	ciel
[4B	es-	.	.	[4d	es-
=16	=16	=16	=16	=16	=16
8BL]	.	1r	.	8dL]	.
8c#XJ	-ser	.	.	8gJ	-ser
2d	vor-	.	.	4f	vor-
.	.	.	.	2e	-re-
4c#X	-re-	.	.	.	.
2d	-i;	4r	.	2f#X	-i;
.	.	4d	Il	.	.
2r	.	4c#X	ciel	2r	.
.	.	[4d	es-	.	.
=17	=17	=17	=17	=17	=17
0r	.	8dL]	.	0r	.
.	.	8BJ	-ser	.	.
.	.	4A	vor-	.	.
.	.	2e	-re-	.	.
.	.	4A	-i;	.	.
.	.	4a	Per-	.	.
.	.	4g	-ché	.	.
.	.	4d	ne	.	.
=18	=18	=18	=18	=18	=18
1r	.	4e	gl'oc-	1r	.
.	.	4f	-chi	.	.
.	.	2e	mie-	.	.
2r	.	2A	-i	2r	.
[2A	Fi-	2r	.	[2c#X	Fi-
=19	=19	=19	=19	=19	=19
2A]	.	0r	.	2c#]	.
2D	-so	.	.	2d	-so
4A	tu	.	.	4c#X	tu
2G	ri-	.	.	2d	ri-
4A	-vol-	.	.	4cnXi	-vol-
=20	=20	=20	=20	=20	=20
2E	-ges-	0r	.	2B	-ges-
4E	-si	.	.	4B	-si
4A	Le	.	.	4c#X	Le
2G	tue	.	.	2d	tue
[2c	dol-	.	.	[2e	dol-
=21	=21	=21	=21	=21	=21
4c]	.	0r	.	4e]	.
4c	-ci	.	.	4e	-ci
2G	fa-	.	.	2d	fa-
1A	-vil-	.	.	1c#X	-vil-
=22	=22	=22	=22	=22	=22
2A	-le,	4r	.	2c#i	-le,
.	.	4e	Io	.	.
4r	.	4.f	va-	4r	.
4D	Io	.	.	4d	Io
.	.	8e	-gheg-	.	.
8DL	va-	4d	-giar	4.f	va-
8E	.	.	.	.	.
8F	.	4c	po-	.	.
8GJ	.	.	.	8e	-gheg-
4.A	.	[2f	-tes-	4d	-giar
.	.	.	.	4cnXi	po-
8G	-gheg-	.	.	.	.
=23	=23	=23	=23	=23	=23
4A	-giar	2f]	.	2F	-tes-
4B	po-	.	.	.	.
2c	-tes-	4e	-si,	4G	-si,
.	.	4e	<Io	4c	<Io
[1G	-si	2.g	va-	4.d	va-
.	.	.	.	8e	-gheg-
.	.	.	.	4d	-giar
.	.	4g	-gheg-	4g	po-
=24	=24	=24	=24	=24	=24
1G]	.	4d	-giar	1g	-tes-
.	.	4e	po-	.	.
.	.	2d	-tes-	.	.
1r	.	4c	-si>	4e	-si>
.	.	4.c	Mil-	4.e	Mil-
.	.	8c	-le	8e	-le
.	.	4e	bel-	4e	bel-
=25	=25	=25	=25	=25	=25
4r	.	4.d	-lez-	4f#X	-lez-
4.G	Mil-	.	.	4g	-ze
.	.	8d	-ze	.	.
.	.	2c	tue	2.e	tue
8G	-le	.	.	.	.
4E	bel-	.	.	.	.
4A	-lez-	2r	.	.	.
4D	-ze	.	.	4d	con
4G	tue	2d	con	2B	lu-
4D	con	.	.	.	.
=26	=26	=26	=26	=26	=26
2E	lu-	2c	lu-	2c	-ci
2D	-ci	2B	-ci	1.d	mil-
1D	mil-	1A	mil-	.	.
=27	=27	=27	=27	=27	=27
0Dl	-le.	0Gl	-le.	0dl	-le.
==	==	==	==	==	==
*-	*-	*-	*-	*-	*-
!!!system-decoration: [(s1)(s2)(s3)]
!!!RDF**kern: i = editorial accidental
!!!RDF**kern: l = terminal long
!!!ENC: Emiliano Ricciardi
!!!END: 2019/08/08
!!!EED: Ricciardi, Emiliano
!!!EEV: 2019/08/08
!!!YEC: Copyright 2018 Emiliano Ricciardi, All Rights Reserved
!!!ONB: Translated from MusicXML on 2019/08/08 and edited by Craig Stuart Sapp
